public/assets/standards/sci-ai/building-icon.svg

<svg width="75" height="75" viewBox="0 0 75 75" fill="none" xmlns="http://www.w3.org/2000/svg">
<g clip-path="url(#clip0_80_7548)">
<path d="M38.88 0.04V0H0V40.06H0.13C1.63 59.18 17.61 74.23 37.11 74.23C57.61 74.23 74.22 57.61 74.22 37.12C74.22 16.63 58.55 0.97 38.88 0.04Z" fill="#006D68"/>
<path d="M54.5901 58.16C54.5001 58.07 54.3801 58.01 54.2401 58C52.1901 57.79 50.5901 56.02 50.5901 53.96L50.6201 27.26C50.6201 23.65 47.6801 20.71 44.0701 20.71H15.6201C15.3901 20.71 15.2001 20.86 15.1101 21.07C15.0201 21.28 15.0801 21.54 15.2401 21.7C15.3301 21.79 15.4501 21.85 15.5801 21.86C17.4601 22.06 18.9801 23.58 19.1801 25.4L19.2201 52.6C19.2201 56.21 22.1601 59.14 25.7701 59.14H54.2101C54.4401 59.14 54.6301 58.99 54.7201 58.78C54.8101 58.57 54.7501 58.31 54.5901 58.15V58.16Z" fill="white"/>
<path d="M54.21 59.61H25.77C21.91 59.61 18.76 56.47 18.76 52.61L18.72 25.41C18.55 23.85 17.17 22.5 15.53 22.33C15.3 22.3 15.08 22.2 14.91 22.03C14.61 21.73 14.52 21.27 14.68 20.9C14.84 20.51 15.21 20.26 15.61 20.26H44.07C47.93 20.26 51.08 23.4 51.08 27.27L51.05 53.97C51.05 55.79 52.47 57.37 54.29 57.55C54.52 57.57 54.75 57.68 54.91 57.85C55.2 58.15 55.3 58.6 55.14 58.98C54.98 59.37 54.61 59.62 54.2 59.62L54.21 59.61ZM15.62 21.17C15.62 21.17 15.55 21.21 15.54 21.25C15.53 21.28 15.54 21.34 15.58 21.38C17.74 21.64 19.42 23.29 19.65 25.36L19.69 52.61C19.69 55.97 22.42 58.7 25.78 58.7H54.22C54.22 58.7 54.29 58.66 54.31 58.62C54.32 58.59 54.31 58.53 54.28 58.49C54.28 58.49 54.24 58.46 54.22 58.46C51.94 58.23 50.15 56.25 50.15 53.96L50.18 27.26C50.18 23.9 47.45 21.17 44.09 21.17H15.62Z" fill="white"/>
<path d="M58.9698 52.5401C58.8698 52.4401 58.7398 52.3801 58.5998 52.3601C56.5698 52.1601 54.9798 50.4001 54.9798 48.3601L55.0098 21.6601C55.0098 18.0301 52.0598 15.0801 48.4298 15.0801H19.9698C19.7298 15.0801 19.5198 15.2401 19.4298 15.4601C19.3398 15.6801 19.3998 15.9601 19.5698 16.1301C19.6698 16.2301 19.7898 16.2901 19.9298 16.3001C21.7998 16.5001 23.2998 18.0001 23.4998 19.8101L23.5398 47.0101C23.5398 50.6401 26.4998 53.5901 30.1198 53.5901H58.5598C58.7998 53.5901 59.0098 53.4301 59.0998 53.2101C59.1898 52.9901 59.1298 52.7201 58.9598 52.5401H58.9698Z" fill="#A5C352"/>
<path d="M58.5699 54.0401H30.1299C26.2499 54.0401 23.0899 50.8801 23.0899 47.0001L23.0499 19.8001C22.8799 18.2601 21.5199 16.9301 19.8899 16.7501C19.6499 16.7201 19.4199 16.6201 19.2499 16.4401C18.9399 16.1301 18.8499 15.6601 19.0099 15.2701C19.1799 14.8601 19.5599 14.6001 19.9799 14.6001H48.4399C52.3199 14.6001 55.4799 17.7601 55.4799 21.6401L55.4499 48.3401C55.4499 50.1501 56.8599 51.7001 58.6599 51.8901C58.8999 51.9201 59.1299 52.0201 59.3099 52.2001C59.6199 52.5101 59.7099 52.9701 59.5499 53.3701C59.3799 53.7701 58.9999 54.0401 58.5799 54.0401H58.5699ZM19.9699 15.5301C19.9199 15.5301 19.8699 15.5801 19.8499 15.6301C19.8299 15.6801 19.8499 15.7601 19.8899 15.8001C19.9099 15.8201 19.9399 15.8401 19.9799 15.8401C22.0599 16.0601 23.7299 17.7101 23.9499 19.7501L23.9899 47.0001C23.9899 50.3801 26.7399 53.1201 30.1199 53.1201H58.5599C58.6199 53.1201 58.6599 53.0701 58.6799 53.0201C58.6999 52.9701 58.6799 52.9001 58.6399 52.8601C58.6399 52.8601 58.5899 52.8201 58.5499 52.8201C56.2899 52.5901 54.5199 50.6301 54.5199 48.3601L54.5499 21.6601C54.5499 18.2801 51.7999 15.5401 48.4199 15.5401H19.9599L19.9699 15.5301Z" fill="#A5C352"/>
<path d="M38.3299 44.4302C37.8299 44.4302 37.3499 44.2302 36.9999 43.8602L29.9799 36.5102C29.2799 35.7802 29.3099 34.6102 30.0399 33.9102C30.7699 33.2102 31.9399 33.2402 32.6399 33.9702L37.9199 39.4902L45.6199 25.1902C46.0999 24.3002 47.2099 23.9602 48.1099 24.4402C48.9999 24.9202 49.3399 26.0302 48.8599 26.9302L39.9699 43.4602C39.6899 43.9802 39.1799 44.3302 38.5999 44.4102C38.5199 44.4202 38.4399 44.4302 38.3499 44.4302H38.3299Z" fill="white"/>
</g>
<defs>
<clipPath id="clip0_80_7548">
<rect width="75" height="75" fill="white"/>
</clipPath>
</defs>
</svg>

<svg xmlns="http://www.w3.org/2000/svg" width="75" height="75" fill="none" viewBox="0 0 75 75"><g clip-path="url(#a)"><path fill="#006d68" d="M38.88.04V0H0v40.06h.13c1.5 19.12 17.48 34.17 36.98 34.17 20.5 0 37.11-16.62 37.11-37.11S58.55.97 38.88.04"/><path fill="#fff" d="M54.59 58.16a.55.55 0 0 0-.35-.16c-2.05-.21-3.65-1.98-3.65-4.04l.03-26.7a6.56 6.56 0 0 0-6.55-6.55H15.62c-.23 0-.42.15-.51.36s-.03.47.13.63c.09.09.21.15.34.16 1.88.2 3.4 1.72 3.6 3.54l.04 27.2c0 3.61 2.94 6.54 6.55 6.54h28.44c.23 0 .42-.15.51-.36s.03-.47-.13-.63z"/><path fill="#fff" d="M54.21 59.61H25.77c-3.86 0-7.01-3.14-7.01-7l-.04-27.2c-.17-1.56-1.55-2.91-3.19-3.08-.23-.03-.45-.13-.62-.3-.3-.3-.39-.76-.23-1.13.16-.39.53-.64.93-.64h28.46c3.86 0 7.01 3.14 7.01 7.01l-.03 26.7c0 1.82 1.42 3.4 3.24 3.58.23.02.46.13.62.3.29.3.39.75.23 1.13-.16.39-.53.64-.94.64zM15.62 21.17s-.07.04-.08.08c-.01.03 0 .09.04.13 2.16.26 3.84 1.91 4.07 3.98l.04 27.25c0 3.36 2.73 6.09 6.09 6.09h28.44s.07-.04.09-.08c.01-.03 0-.09-.03-.13 0 0-.04-.03-.06-.03-2.28-.23-4.07-2.21-4.07-4.5l.03-26.7c0-3.36-2.73-6.09-6.09-6.09z"/><path fill="#a5c352" d="M58.97 52.54c-.1-.1-.23-.16-.37-.18-2.03-.2-3.62-1.96-3.62-4l.03-26.7c0-3.63-2.95-6.58-6.58-6.58H19.97c-.24 0-.45.16-.54.38s-.03.5.14.67c.1.1.22.16.36.17 1.87.2 3.37 1.7 3.57 3.51l.04 27.2c0 3.63 2.96 6.58 6.58 6.58h28.44c.24 0 .45-.16.54-.38s.03-.49-.14-.67z"/><path fill="#a5c352" d="M58.57 54.04H30.13c-3.88 0-7.04-3.16-7.04-7.04l-.04-27.2c-.17-1.54-1.53-2.87-3.16-3.05a1.05 1.05 0 0 1-.64-.31c-.31-.31-.4-.78-.24-1.17.17-.41.55-.67.97-.67h28.46c3.88 0 7.04 3.16 7.04 7.04l-.03 26.7c0 1.81 1.41 3.36 3.21 3.55a1.083 1.083 0 0 1 .89 1.48c-.17.4-.55.67-.97.67zm-38.6-38.51c-.05 0-.1.05-.12.1s0 .13.04.17c.02.02.05.04.09.04 2.08.22 3.75 1.87 3.97 3.91L23.99 47c0 3.38 2.75 6.12 6.13 6.12h28.44c.06 0 .1-.05.12-.1s0-.12-.04-.16c0 0-.05-.04-.09-.04-2.26-.23-4.03-2.19-4.03-4.46l.03-26.7c0-3.38-2.75-6.12-6.13-6.12H19.96z"/><path fill="#fff" d="M38.33 44.43c-.5 0-.98-.2-1.33-.57l-7.02-7.35c-.7-.73-.67-1.9.06-2.6s1.9-.67 2.6.06l5.28 5.52 7.7-14.3c.48-.89 1.59-1.23 2.49-.75.89.48 1.23 1.59.75 2.49l-8.89 16.53c-.28.52-.79.87-1.37.95-.08.01-.16.02-.25.02z"/></g><defs><clipPath id="a"><path fill="#fff" d="M0 0h75v75H0z"/></clipPath></defs></svg>
